!!!SOCIAL_FUNCTION:	songs of the ghost dance
!!!PDT:	1936
!!!OTL: No_34_It_Was_the_Turtle.krn
!!!REG: Oklahoma and Montana
!!!LANG: Tone
!!!LING_GROUP: Algonquin
**kern
*staff1
=1-
=
*clefF4
*k[b-e-a-d-]
*M2/4
4c\
8B-\L
8Bn\J
=2
4c\
8B-\L
8Bn\J
=3
4c\
8An\L
8G\J
=4
8F\L
8F\J
4F\
=5
4F\
8F\
8r
=6
*M3/4
8c\L
8c\J
8B-\L
8c\J
4A-\
=7
*M2/4
8c\L
8B-\J
8c\L
8A-\J
=8
4A-\
8F\L
8F\J
=9
*M3/4
4F\
4F\
8F\
8r
=10
8c\L
8A-\J
8A-\L
8F\J
8F\L
8F\J
=11
4F\
4F\
8F\
8r
=12
*M5/8
8c\L
8B-\
8B-\
8c\
8A-\J
=13
*M2/4
8B-\L
8B-\J
8A-\L
8A-\J
=14
*M3/4
4A-\
4A-\
8A-\
8r
=15
*M5/8
8B-\L
8A-\
8A-\
8A-\
8F\J
=16
*M2/4
8A-\L
8A-\J
8F\L
8F\J
=17
*M3/4
4F\
4F\
8F\
8r
==:|!
*-
